images/svg/work-preview-localization.svg

<svg fill="none" height="460" viewBox="0 0 640 460" width="640" xmlns="http://www.w3.org/2000/svg" xmlns:xlink="http://www.w3.org/1999/xlink"><clipPath id="a"><path d="m141 91h357.72v278.52h-357.72z"/></clipPath><g clip-path="url(#a)" fill="#fff"><g clip-rule="evenodd" fill-rule="evenodd"><path d="m296.969 277.656h25.224c21.128 0 38.256-17.127 38.256-38.255v-76.513h111.404c7.43 0 13.453 6.023 13.453 13.453v128.642c0 7.429-6.023 13.452-13.453 13.452h-13.032v29.568c0 6.823-7.699 10.804-13.266 6.861l-51.449-36.429h-83.685c-7.429 0-13.452-6.023-13.452-13.452z" fill-opacity=".17"/><path d="m284.352 277.656v27.326c0 14.395 11.67 26.064 26.064 26.064h79.672l48.173 34.111c13.922 9.857 33.168-.097 33.168-17.154v-16.957h.419c14.395 0 26.065-11.669 26.065-26.064v-128.641c0-14.395-11.67-26.065-26.065-26.065h-111.405v12.612h111.405c7.431 0 13.454 6.023 13.454 13.453v128.641c0 7.429-6.023 13.453-13.454 13.453h-13.032v29.568c0 6.821-7.698 10.804-13.266 6.861l-51.448-36.429h-83.686c-7.429 0-13.452-6.024-13.452-13.453v-27.326z"/><path d="m360.448 223.425v-11.771h24.804v-11.771c0-3.251 2.634-5.886 5.886-5.886 3.249 0 5.884 2.635 5.884 5.886v11.771h34.473c3.25 0 5.886 2.635 5.886 5.886 0 3.25-2.636 5.885-5.886 5.885h-14.714c-4.912 11.007-10.932 20.135-17.346 27.609 8.808 8.179 17.567 13.026 23.875 15.383 3.045 1.138 5.223 4.201 4.694 7.408-.53 3.208-3.564 5.378-6.654 4.368-8.178-2.672-19.245-8.576-30.075-18.673-10.934 10.139-22.133 16.025-30.375 18.686-3.092.998-6.127-1.173-6.656-4.379-.53-3.208 1.647-6.269 4.699-7.39 6.378-2.345 15.271-7.185 24.191-15.421-6.4-7.479-12.418-16.605-17.35-27.591zm43.302 0h-24.921c3.748 7.374 8.013 13.671 12.464 19.009 4.458-5.331 8.722-11.628 12.457-19.009z"/><path d="m160.759 103.612c-3.947 0-7.147 3.2-7.147 7.147v128.641c0 3.946 3.2 7.146 7.147 7.146h18.077v35.874c0 1.705 1.924 2.701 3.316 1.716l53.086-37.59h86.953c3.947 0 7.147-3.2 7.147-7.146v-128.641c0-3.947-3.2-7.147-7.147-7.147zm-19.759 7.147c0-10.9128 8.846-19.759 19.759-19.759h161.432c10.913 0 19.758 8.8462 19.758 19.759v128.641c0 10.912-8.845 19.759-19.758 19.759h-82.94l-49.811 35.269c-9.744 6.899-23.216-.067-23.216-12.008v-23.261h-5.465c-10.913 0-19.759-8.847-19.759-19.759z"/></g><path d="m160.756 103.612c-3.947 0-7.147 3.2-7.147 7.147v128.641c0 3.947 3.2 7.146 7.147 7.146h18.077v35.874c0 1.705 1.925 2.702 3.317 1.716l53.086-37.59h86.953c3.946 0 7.146-3.199 7.146-7.146v-128.641c0-3.947-3.2-7.147-7.146-7.147z" fill-opacity=".17"/><path clip-rule="evenodd" d="m247.152 137.02c-1.314-2.998-4.806-4.371-7.811-3.068-1.531.664-2.641 1.895-3.191 3.34l-26.134 60.256c-1.307 3.012.076 6.513 3.088 7.819 3.013 1.307 6.514-.076 7.82-3.088l6.595-15.206h28.381l6.592 15.198c1.307 3.012 4.808 4.395 7.82 3.088 3.012-1.306 4.395-4.807 3.088-7.819l-26.229-60.475zm3.816 38.679-9.258-21.344-9.258 21.344z" fill-rule="evenodd"/></g></svg>

<svg width="640" height="460" viewBox="0 0 640 460" fill="none" xmlns="http://www.w3.org/2000/svg">
<g clip-path="url(#clip0_319_14183)">
<path fill-rule="evenodd" clip-rule="evenodd" d="M296.969 277.656H322.193C343.321 277.656 360.449 260.529 360.449 239.401V162.888H471.853C479.283 162.888 485.306 168.911 485.306 176.341V304.983C485.306 312.412 479.283 318.435 471.853 318.435H458.821V348.003C458.821 354.826 451.122 358.807 445.555 354.864L394.106 318.435H310.421C302.992 318.435 296.969 312.412 296.969 304.983V277.656Z" fill="white" fill-opacity="0.17"/>
<path fill-rule="evenodd" clip-rule="evenodd" d="M284.352 277.656V304.982C284.352 319.377 296.022 331.046 310.416 331.046H390.088L438.261 365.157C452.183 375.014 471.429 365.06 471.429 348.003V331.046H471.848C486.243 331.046 497.913 319.377 497.913 304.982V176.341C497.913 161.946 486.243 150.276 471.848 150.276H360.443V162.888H471.848C479.279 162.888 485.302 168.911 485.302 176.341V304.982C485.302 312.411 479.279 318.435 471.848 318.435H458.816V348.003C458.816 354.824 451.118 358.807 445.55 354.864L394.102 318.435H310.416C302.987 318.435 296.964 312.411 296.964 304.982V277.656H284.352Z" fill="white"/>
<path fill-rule="evenodd" clip-rule="evenodd" d="M360.448 223.425V211.654H385.252V199.883C385.252 196.632 387.886 193.997 391.138 193.997C394.387 193.997 397.022 196.632 397.022 199.883V211.654H431.495C434.745 211.654 437.381 214.289 437.381 217.54C437.381 220.79 434.745 223.425 431.495 223.425H416.781C411.869 234.432 405.849 243.56 399.435 251.034C408.243 259.213 417.002 264.06 423.31 266.417C426.355 267.555 428.533 270.618 428.004 273.825C427.474 277.033 424.44 279.203 421.35 278.193C413.172 275.521 402.105 269.617 391.275 259.52C380.341 269.659 369.142 275.545 360.9 278.206C357.808 279.204 354.773 277.033 354.244 273.827C353.714 270.619 355.891 267.558 358.943 266.437C365.321 264.092 374.214 259.252 383.134 251.016C376.734 243.537 370.716 234.411 365.784 223.425H360.448ZM403.75 223.425H378.829C382.577 230.799 386.842 237.096 391.293 242.434C395.751 237.103 400.015 230.806 403.75 223.425Z" fill="white"/>
<path fill-rule="evenodd" clip-rule="evenodd" d="M160.759 103.612C156.812 103.612 153.612 106.812 153.612 110.759V239.4C153.612 243.346 156.812 246.546 160.759 246.546H178.836V282.42C178.836 284.125 180.76 285.121 182.152 284.136L235.238 246.546H322.191C326.138 246.546 329.338 243.346 329.338 239.4V110.759C329.338 106.812 326.138 103.612 322.191 103.612H160.759ZM141 110.759C141 99.8462 149.846 91 160.759 91H322.191C333.104 91 341.949 99.8462 341.949 110.759V239.4C341.949 250.312 333.104 259.159 322.191 259.159H239.251L189.44 294.428C179.696 301.327 166.224 294.361 166.224 282.42V259.159H160.759C149.846 259.159 141 250.312 141 239.4V110.759Z" fill="white"/>
<path d="M160.756 103.612C156.809 103.612 153.609 106.812 153.609 110.759V239.4C153.609 243.347 156.809 246.546 160.756 246.546H178.833V282.42C178.833 284.125 180.758 285.122 182.15 284.136L235.236 246.546H322.189C326.135 246.546 329.335 243.347 329.335 239.4V110.759C329.335 106.812 326.135 103.612 322.189 103.612H160.756Z" fill="white" fill-opacity="0.17"/>
<path fill-rule="evenodd" clip-rule="evenodd" d="M247.152 137.02C245.838 134.022 242.346 132.649 239.341 133.952C237.81 134.616 236.7 135.847 236.15 137.292L210.016 197.548C208.709 200.56 210.092 204.061 213.104 205.367C216.117 206.674 219.618 205.291 220.924 202.279L227.519 187.073H255.9L262.492 202.271C263.799 205.283 267.3 206.666 270.312 205.359C273.324 204.053 274.707 200.552 273.4 197.54L247.171 137.065L247.152 137.02ZM250.968 175.699L241.71 154.355L232.452 175.699H250.968Z" fill="white"/>
</g>
<defs>
<clipPath id="clip0_319_14183">
<rect width="357.72" height="278.52" fill="white" transform="translate(141 91)"/>
</clipPath>
</defs>
</svg>
